assets/awsworkdocs/original.svg

<svg height="64" viewBox="0 0 64 64" width="64" xmlns="http://www.w3.org/2000/svg"><g fill="none" fill-rule="evenodd"><path d="m0 0h64v64h-64z" fill="#dd344c"/><path d="m21 35h2v-4h-2zm0-6h2v-4h-2zm0 12h2v-4h-2zm-14-18h4v-2h-4zm6 0h4v-2h-4zm-11 19v-19h3v-2h-3v-19h19v19h-2v2h23v19zm21-38.586 17.586 17.586h-17.586zm21 18.586a1 1 0 0 0 -.293-.707l-21-21a1 1 0 0 0 -.707-.293h-21a1 1 0 0 0 -1 1v42a1 1 0 0 0 1 1h42a1 1 0 0 0 1-1z" fill="#fff" transform="translate(10 10)"/></g></svg>

<svg xmlns="http://www.w3.org/2000/svg" width="64" height="64" viewBox="0 0 64 64"><title>Icon-Architecture/48/Arch_Amazon-WorkDocs_48</title><g id="Icon-Architecture/48/Arch_Amazon-WorkDocs_48" fill="none" fill-rule="evenodd" stroke="none" stroke-width="1"><g id="Icon-Architecture-BG/48/Business-Applications" fill="#dd344c"><path id="Rectangle" d="M0 0h64v64H0z"/></g><g id="Icon-Service/48/Amazon-WorkDocs" fill="#fff" transform="translate(10 10)"><path id="Amazon-WorkDocs_Icon_48_Squid" d="M21 35h2v-4h-2zm0-6h2v-4h-2zm0 12h2v-4h-2zM7 23h4v-2H7zm6 0h4v-2h-4zM2 42V23h3v-2H2V2h19v19h-2v2h23v19zM23 3.414 40.586 21H23zM44 22a1 1 0 0 0-.293-.707l-21-21A1 1 0 0 0 22 0H1a1 1 0 0 0-1 1v42a1 1 0 0 0 1 1h42a1 1 0 0 0 1-1z"/></g></g></svg>
